!!!!SEGMENT: pl-kk--kk-i-11--004-002_paszkiewicz-andrzej--missa-de-passione-domini-sanctus.krn
!!!cenid: 16xx:1243
!!!COM: Paszkiewicz, Andrzej
!!!COM-rismid: pe30105867
!!!CDT: ~1635-1685
!!!CNT: Polish
!!!OPR: Missa de Passione Domini
!!!OTL: Sanctus
!!!OMV: 002
!!!PDT:
!!!AGN: Sacred
!!!SMS-siglum: PL-Kk
!!!SMS-shelfmark: Kk.I.11
!!!SMS-shelfwork: 004-002 M
!!!SMS-variant:
!!!SMS-altvar:
!!!NIFC-rismid: 1001154140
!!!URL-scan: http://repozytorium.nifc.pl/skany/pl-kk-nut--i-11
!!!ONB-nifc: UWAGA: części Mszy: 1. Kyrie, 2. Sanctus. Skan 0012 (tylko org)
**kern
*I"Organo
*I'org
*clefF4
*k[b-]
*F:
*M2/1
*met(c|)
*all\right
*2\right
=1-
!LO:TX:b:t=Sanct(us) 1.
1FF
1C
=2-
!LO:TX:t=P:problem:2\right:global
2F\
2FF/
2.C/
4BB-/
=3-
2AA/
2FF/
1GG
=4-
2.AA/
4BB-/
1C
=5-
!LO:TX:t=P:problem:podwójna kreska pseudotaktowa
0FF;
=6||
*M2/1
*met(c|)
!LO:TX:b:t=Sanct(us) 2.
1D
1GG
=7-
4AA/
4FF/
4AA/
4BB-/
1C
=8-
1FF
2.C/
4BB-/
=9-
2AA/
2FF/
!LO:N:vis=0
1BB-;<
!!LO:LB:g=original
=10||
*M2/1
*met(c|)
!LO:TX:b:t=Sanct(us) 3.
2BB-/
2D/
1C
=11-
1FF
2.BB-/
4AA/
=12-
1GG
2.C/
4BB-/
=13-
2AA/
2FF/
1BB-
=14-
1GG
1C
=15-
!LO:TX:t=P:problem:kreska pseudotaktowa
0FF;
=16||
*M2/1
*met(c|)
*lig
!LO:TX:b:t=Pleni
1F
1G
*Xlig
=17-
1F
1C
=18-
2FF/
1F
2E\
=19-
1F
!LO:SIC:v:t=custos “AA”
1C
!!LO:LB:g=original
=20-
2AA/
2FF/
1FF
=21-
4GG/
4AA/
4BB-/
4GG/
2AA/
2FF/
=22-
1C
1FF
=23-
4BB-/
4C/
4D/
4E\
2F\
2FF/
=24-
1C
1FF
=25-
2C/
2GG/
1D
=26-
1GG
!LO:N:vis=0
1C;
=27||
*M3/1
!LO:TX:b:t=Oſanna
1F
1D
1D
=28-
0C
1C
=29-
!LO:SIC:v:t=custos “C”
0.FF
!!LO:LB:g=original
=30-
0C
1C
=31-
0FF
1AA
=32-
0BB-
1BB-
=33-
0.F
=34-
0.G
=35-
0.A
=36-
0D
1D
=37-
0BB-
1FF
=38-
0C
1C
=39-
0GG
1GG
=40-
0.C
=41-
0.FF
=42-
0BB-
1AA
=43-
0.BB-
=44-
0.FF;
!!LO:LB:g=original
=45||
*M2/1
*met(c|)
!LO:TX:b:t=Benedict(us)
1F
1.C
=46-
.
2D/
1E
=47-
2F\
2FF/
1BB-
=48-
1FF
1C
=49-
1FF
2AA/
2A\
=50-
1F
1D
=51-
2C/
2C/
1BB-
=52-
1BB-
1FF
=53-
1C
2GG/
2C/
=54-
1FF
1GG
=55-
2.D/
4D/
!LO:N:vis=0
!LO:TX:b:t=Oſanna Vt ſupra.
1GG;
==
*-
!!!RDF**kern: > = above
!!!RDF**kern: < = below
!!!ENC: Kamil Watkowski
!!!END: 2021-07-10
